!!!COM: Palestrina, Giovanni Perluigi da
!!!OPR: Missa Dum complerentur
!!!OMD: Sanctus
!!!OTL: Hosanna
**kern	**kern	**kern	**kern	**kern	**kern
*Ibass	*Itenor	*Itenor	*Icalto	*Icalto	*Icant
!Bassus	!Tenor 2	!Tenor 1	!Altus 2	!Altus 1	!Cantus
*clefF4	*clefGv2	*clefGv2	*clefG2	*clefG2	*clefG2
*k[b-]	*k[b-]	*k[b-]	*k[b-]	*k[b-]	*k[b-]
*F:ion	*F:ion	*F:ion	*F:ion	*F:ion	*F:ion
*M4/2	*M4/2	*M4/2	*M4/2	*M4/2	*M4/2
=64	=64	=64	=64	=64	=64
0C	0c	2.e	0g	0cc	0ee
.	.	4f	.	.	.
.	.	2g	.	.	.
.	.	2c	.	.	.
=65	=65	=65	=65	=65	=65
0F	0c	2A	0a	1cc	0ff
.	.	4F	.	.	.
.	.	4G	.	.	.
.	.	4A	.	[1f	.
.	.	4B-	.	.	.
.	.	2c	.	.	.
=66	=66	=66	=66	=66	=66
2BB-	1B-	2d	2b-	0f]	1dd
1B-	.	2B-	2.f	.	.
.	1F	2c	.	.	1cc
.	.	.	4g	.	.
2A	.	[2f	2a	.	.
=67	=67	=67	=67	=67	=67
1B-	2r	4f]	2.d	2r	2dd
.	.	4e	.	.	.
.	1B-	2d	.	2.f	2b-
.	.	.	4e	.	.
1F	.	1c	1f	.	2cc
.	.	.	.	4g	.
.	2A	.	.	2a	[2ff
=68	=68	=68	=68	=68	=68
2.BB-	1B-	2r	2r	2.d	4ff]
.	.	.	.	.	4ee
.	.	1B-	2.f	.	1dd
4C	.	.	.	4e	.
4D	[1F	.	.	1f	.
4E	.	.	4g	.	.
2F	.	2A	2a	.	[2cc
=69	=69	=69	=69	=69	=69
1BB-	1F]	2B-	2.d	2r	2cc]
.	.	2d	.	2.f	1b-
.	.	.	4e	.	.
1F	2r	1c	1f	.	.
.	.	.	.	4g	.
.	2f	.	.	2a	2a
=70	=70	=70	=70	=70	=70
0BB-	4f	1B-	1f	2.d	2.b-
.	4e	.	.	.	.
.	4d	.	.	.	.
.	4c	.	.	4e	4cc
.	2B-	2.F	1b-	[1f	1dd
.	2B-	.	.	.	.
.	.	4G	.	.	.
=71	=71	=71	=71	=71	=71
0F	4c	2.A	2a	2f]	2cc
.	4B-	.	.	.	.
.	4A	.	4cc	2c	2.f
.	4G	4B-	4b-	.	.
.	2A	[1c	4a	2f	.
.	.	.	4g	.	4g
.	2A	.	[2f	2f	4a
.	.	.	.	.	4b-
=72	=72	=72	=72	=72	=72
0C	0G	0c]	2f]	0g	0cc
.	.	.	4e	.	.
.	.	.	4d	.	.
.	.	.	1e	.	.
=73	=73	=73	=73	=73	=73
0F	0F	0c	0f	0a	0cc
==	==	==	==	==	==
*-	*-	*-	*-	*-	*-
!!!CDT: 1525/^1526/-1594/2/2
!!!OCY: Italia
!!!AGN: Mass (Parody)
!!!AST: renaissance, vocal
!!!ASW: Motet 1569 (Palestrina)
!!!PWK: Masses, Book 8
!!!RNB: Cadence finals: C
!!!YOR: Le Opere Complete, v. 24, p. 117
!!!YOO: Rome, Italy: Fratelli Scalera
!!!END: 1992//
!!!EED: John Miller
!!!YEC: Copyright 2000, John Miller
!!!YEN: United States of America
!!!YEM: Rights to all derivative electronic formats reserved.
!!!YEM: Refer to licensing agreement for further details.
!!!YEM: This file must be accompanied by the licensing agreement.
!!!YEM: A copy of the licensing agreement may be found at http://www.music-cog.ohio-state.edu/HumdrumDatabases/Palestrina/license.txt
!!!EMD: converted to Humdrum by Bret Aarden
